data/playwrite-is.svg

<svg width="85.358" height="23.1" viewBox="0 0 85.358 23.1" xmlns="http://www.w3.org/2000/svg"><path transform="translate(0 17.85) scale(.014 -.014)" d="m107-14q-47 0-40 30l209 832q4 14 16 20.5t34 6.5h162q95 0 158-22t95-66.5 32-112.5q0-76-29.5-132t-82-93.5-122.5-60.5-151-34q-37-4-77-6.5t-73-2.5l-83-331q-4-14-14.5-21t-33.5-7zm150 439q23 0 49 1t52.5 3.5 50.5 5.5q85 14 146 42t94.5 74.5 33.5 113.5q0 46-22 75t-67 42-117 13h-126z"/><path transform="translate(9.8 17.85) scale(.014 -.014)" d="m136-15q-54 0-70 40.5t6 118.5l179 715q6 19 15.5 25t29.5 6q29 0 38-9t3-27l-192-750q-5-22-2-32.5t15-10.5q9 0 17.5 6t18.5 17.5 23 30.5q7 10 15.5 11.5t19.5-5.5q16-9 20-18.5t-2-19.5q-18-33-39-55t-44.5-32.5-50.5-10.5z"/><path transform="translate(13.986 17.85) scale(.014 -.014)" d="m165-17q-37 0-65 20.5t-43.5 58-15.5 89.5q0 47 13 98.5t39 99 63.5 86 86 61.5 107.5 23q30 0 61-7.5t61-21.5l1 3q4 14 14.5 18t27.5 4q29 0 38.5-9t3.5-27l-97-375q-5-18-5-27.5t4.5-12.5 9.5-3q10 0 19.5 6t20.5 18.5 24 29.5q7 10 15.5 11.5t19.5-5.5q16-9 20-19t-1-20q-9-18-28-41t-46-39.5-62-16.5q-34 0-51.5 14.5t-22.5 37-2 49 9 50.5q1 5 1.5 11t1.5 13q-37-59-74.5-98.5t-74.5-59-73-19.5zm-33 180q0-29 6.5-52t19.5-35.5 32-12.5q36 0 78.5 37.5t87.5 109 89 172.5l9 35q-32 14-60 18.5t-51 4.5q-40 0-73.5-17.5t-59-46.5-43-65.5-26.5-74.5-9-73z"/><path transform="translate(22.694 17.85) scale(.014 -.014)" d="m167-15q-44 0-70.5 20.5t-32.5 63 11 106.5l77 309q6 19 15.5 25t29.5 6q29 0 38-9t3-27l-82-320q-7-27-7.5-48.5t10-34 36.5-12.5q35 0 73.5 29t77.5 81.5 75.5 124 67.5 157.5l3 28q6 19 15.5 25t29.5 6q29 0 38-9t4-27l-160-629q-23-91-52.5-144.5t-74-76.5-112.5-23q-37 0-70 9t-60.5 24.5-49.5 33.5q-15 13-19.5 27t15.5 31q17 15 28 16.5t27-12.5q29-23 61-37t72-14q42 0 69.5 16.5t46 53.5 34.5 99l85 336q-29-51-59.5-89.5t-62.5-64-65-38-65-12.5z"/><path transform="translate(31.486 17.85) scale(.014 -.014)" d="m180-19q-42 0-67 17t-35.5 47-8.5 68.5 13 80.5l70 291q3 14 12 22.5t34 8.5q30 0 37.5-9t3.5-27l-74-295q-9-34-11.5-62t7.5-45 39-17 57 21 53.5 55.5 47 76.5 36.5 84l48 187q4 14 12.5 22.5t31.5 8.5q32 0 38.5-9t1.5-27l-66-282q-3-19-6-42.5t-0.5-45.5 14.5-35.5 38-13.5q31 0 61 20t55.5 53.5 45 75 30.5 86 11 84.5q0 12-0.5 25.5t-3.5 28.5-8 29q-5 18-1.5 30.5t13.5 19 26 6.5q19 0 30-11.5t17-35.5q6-12 8.5-25t3.5-26 1-27q0-52-14.5-109t-42-111.5-65.5-98-85.5-69-101.5-25.5q-45 0-71.5 17.5t-39 48-14.5 68.5q-23-41-51.5-71t-60.5-46.5-69-16.5z"/><path transform="translate(43.442 17.85) scale(.014 -.014)" d="m74-15q-17 0-30.5 7t-7.5 24l116 468q6 19 15.5 25t29.5 6q29 0 38-9t3-27l-40-162q28 49 57.5 87t58.5 63.5 55.5 38.5 47.5 13q27 0 48.5-13t33.5-30q7-10 5-21.5t-11-22.5q-11-12-21.5-16.5t-18.5 3.5q-11 8-22.5 14t-23.5 6q-26 0-61.5-28t-74-80-76-122.5-66.5-154.5l-8-43q-3-13-13.5-19.5t-33.5-6.5z"/><path transform="translate(49.798 17.85) scale(.014 -.014)" d="m134-15q-53 0-69.5 40.5t5.5 118.5l82 340q6 19 15.5 25t29.5 6q29 0 38-9t3-27l-95-375q-5-22-2.5-32.5t15.5-10.5q9 0 17 6t18.5 17.5 24.5 30.5q7 10 15.5 11.5t19.5-5.5q16-9 20-18.5t-2-19.5q-19-33-40-55t-44.5-32.5-50.5-10.5zm110 684q-22 0-36 13.5t-14 39.5q0 29 16.5 51t51.5 22q23 0 37-13.5t14-40.5q0-28-16.5-50t-52.5-22z"/><path transform="translate(53.998 17.85) scale(.014 -.014)" d="m170-15q-39 0-62.5 17.5t-29.5 52.5 8 86l69 279h-76q-12 0-16.5 10t-0.5 30q4 21 13.5 30.5t21.5 9.5h79l50 199q5 19 15 25t30 6q29 0 38-9t4-27l-50-194h126q12 0 17-9.5t0-30.5q-4-20-13-30t-21-10h-129l-77-295q-8-34-2.5-49t24.5-15q20 0 45 17t51 54q8 10 17.5 11.5t23.5-6.5q15-9 18-18.5t-1-18.5q-12-24-36-51t-58-45.5-78-18.5z"/><path transform="translate(59.43 17.85) scale(.014 -.014)" d="m232-19q-61 0-100.5 25.5t-59.5 70.5-20 100q0 60 20.5 120.5t59 110.5 94.5 80.5 128 30.5q47 0 79-15t49-41.5 17-64.5q0-41-24.5-74t-65.5-59-93-45-107-32-108-22l6 71q33 5 74 14t80.5 21 73 29 53.5 39 20 50q0 27-18 38.5t-47 11.5q-45 0-83-23t-64-60.5-40-82.5-14-89q0-38 10.5-66t33.5-43 58-15q34 0 60.5 13.5t49.5 35.5 46 48q12 14 27 11t26-14 13-23-9-26q-36-47-73.5-74.5t-75-39-76.5-11.5z"/><path transform="translate(70.994 17.85) scale(.014 -.014)" d="m106-14q-22 0-32.5 7t-7.5 23l211 847q4 14 16.5 20.5t34.5 6.5 32.5-7 6.5-22l-212-847q-3-14-14.5-21t-34.5-7z"/><path transform="translate(75.726 17.85) scale(.014 -.014)" d="m310-19q-44 0-83.5 10.5t-73.5 29-62 43.5-49 53q-8 12-4 22.5t15 19.5q15 12 25.5 15t21.5-9q22-25 53-47.5t70.5-37 86.5-14.5 86.5 10.5 68.5 30.5 45 52 16 75q0 29-9.5 52.5t-28 44-45 37.5-62.5 35q-33 16-63 35t-55.5 41-44.5 49-29.5 60.5-10.5 74.5q0 50 19.5 92t57 72 89.5 46.5 117 16.5q52 0 93.5-14t76-37.5 62.5-50.5q10-10 8-21.5t-15-22.5q-12-12-23.5-14.5t-22.5 5.5q-23 19-48 35t-56 25.5-75 9.5q-42 0-77.5-9t-60.5-26.5-38.5-44-13.5-62.5q0-32 8-57t26.5-46 47.5-40 71-38q43-21 78.5-45.5t62-54.5 40-66.5 13.5-81.5q0-58-22.5-104.5t-64-79.5-98-51-123.5-18z"/></svg>

<?xml version="1.0" encoding="utf-8" ?>
<svg baseProfile="tiny" height="100%" version="1.2" width="100%" xmlns="http://www.w3.org/2000/svg" xmlns:ev="http://www.w3.org/2001/xml-events" xmlns:xlink="http://www.w3.org/1999/xlink"><defs /><g><path d="M107 -14Q60 -14 67 16L276 848Q280 862 292.0 868.5Q304 875 326 875H488Q583 875 646.0 853.0Q709 831 741.0 786.5Q773 742 773 674Q773 598 743.5 542.0Q714 486 661.5 448.5Q609 411 539.0 388.0Q469 365 388 354Q351 350 311.0 347.5Q271 345 238 345L155 14Q151 0 140.5 -7.0Q130 -14 107 -14ZM257 425Q280 425 306.0 426.0Q332 427 358.5 429.5Q385 432 409 435Q494 449 555.0 477.0Q616 505 649.5 551.5Q683 598 683 665Q683 711 661.0 740.0Q639 769 594.0 782.0Q549 795 477 795H351Z" transform="translate(0.0, 72) scale(0.072, -0.072)" /><path d="M136 -15Q82 -15 66.0 25.5Q50 66 72 144L251 859Q257 878 266.5 884.0Q276 890 296 890Q325 890 334.0 881.0Q343 872 337 854L145 104Q140 82 143.0 71.5Q146 61 158 61Q167 61 175.5 67.0Q184 73 194.0 84.5Q204 96 217 115Q224 125 232.5 126.5Q241 128 252 121Q268 112 272.0 102.5Q276 93 270 83Q252 50 231.0 28.0Q210 6 186.5 -4.5Q163 -15 136 -15Z" transform="translate(50.4, 72) scale(0.072, -0.072)" /><path d="M165 -17Q128 -17 100.0 3.5Q72 24 56.5 61.5Q41 99 41 151Q41 198 54.0 249.5Q67 301 93.0 348.5Q119 396 156.5 434.5Q194 473 242.5 496.0Q291 519 350 519Q380 519 411.0 511.5Q442 504 472 490L473 493Q477 507 487.5 511.0Q498 515 515 515Q544 515 553.5 506.0Q563 497 557 479L460 104Q455 86 455.0 76.5Q455 67 459.5 64.0Q464 61 469 61Q479 61 488.5 67.0Q498 73 509.0 85.5Q520 98 533 115Q540 125 548.5 126.5Q557 128 568 121Q584 112 588.0 102.0Q592 92 587 82Q578 64 559.0 41.0Q540 18 513.0 1.5Q486 -15 451 -15Q417 -15 399.5 -0.5Q382 14 377.0 36.5Q372 59 375.0 85.5Q378 112 384 136Q385 141 385.5 147.0Q386 153 387 160Q350 101 312.5 61.5Q275 22 238.0 2.5Q201 -17 165 -17ZM132 163Q132 134 138.5 111.0Q145 88 158.0 75.5Q171 63 190 63Q226 63 268.5 100.5Q311 138 356.0 209.5Q401 281 445 382L454 417Q422 431 394.0 435.5Q366 440 343 440Q303 440 269.5 422.5Q236 405 210.5 376.0Q185 347 167.5 310.5Q150 274 141.0 236.0Q132 198 132 163Z" transform="translate(71.928, 72) scale(0.072, -0.072)" /><path d="M167 -15Q123 -15 96.5 5.5Q70 26 64.0 68.5Q58 111 75 175L152 484Q158 503 167.5 509.0Q177 515 197 515Q226 515 235.0 506.0Q244 497 238 479L156 159Q149 132 148.5 110.5Q148 89 158.5 76.5Q169 64 195 64Q230 64 268.5 93.0Q307 122 346.0 174.5Q385 227 421.5 298.5Q458 370 489 456L492 484Q498 503 507.5 509.0Q517 515 537 515Q566 515 575.0 506.0Q584 497 579 479L419 -150Q396 -241 366.5 -294.5Q337 -348 292.5 -371.0Q248 -394 180 -394Q143 -394 110.0 -385.0Q77 -376 49.5 -360.5Q22 -345 0 -327Q-15 -314 -19.5 -300.0Q-24 -286 -4 -269Q13 -254 24.0 -252.5Q35 -251 51 -265Q80 -288 112.0 -302.0Q144 -316 184 -316Q226 -316 253.5 -299.5Q281 -283 299.5 -246.0Q318 -209 334 -147L419 189Q390 138 359.5 99.5Q329 61 297.0 35.5Q265 10 232.0 -2.5Q199 -15 167 -15Z" transform="translate(116.71199999999999, 72) scale(0.072, -0.072)" /><path d="M180 -19Q138 -19 113.0 -2.0Q88 15 77.5 45.0Q67 75 69.0 113.5Q71 152 82 194L152 485Q155 499 164.0 507.5Q173 516 198 516Q228 516 235.5 507.0Q243 498 239 480L165 185Q156 151 153.5 123.0Q151 95 161.0 78.0Q171 61 200 61Q229 61 257.0 82.0Q285 103 310.5 137.5Q336 172 357.5 214.0Q379 256 394 298L442 485Q446 499 454.5 507.5Q463 516 486 516Q518 516 524.5 507.0Q531 498 526 480L460 198Q457 179 454.0 155.5Q451 132 453.5 110.0Q456 88 468.0 74.5Q480 61 506 61Q537 61 567.0 81.0Q597 101 622.5 134.5Q648 168 667.5 209.5Q687 251 698.0 295.5Q709 340 709 380Q709 392 708.5 405.5Q708 419 705.0 434.0Q702 449 697 463Q692 481 695.5 493.5Q699 506 709.0 512.5Q719 519 735 519Q754 519 765.0 507.5Q776 496 782 472Q788 460 790.5 447.0Q793 434 794.0 421.0Q795 408 795 394Q795 342 780.5 285.0Q766 228 738.5 173.5Q711 119 673.0 75.5Q635 32 587.5 6.5Q540 -19 486 -19Q441 -19 414.5 -1.5Q388 16 375.5 46.5Q363 77 361 115Q338 74 309.5 44.0Q281 14 249.0 -2.5Q217 -19 180 -19Z" transform="translate(161.928, 72) scale(0.072, -0.072)" /><path d="M74 -15Q57 -15 43.5 -8.0Q30 -1 36 16L152 484Q158 503 167.5 509.0Q177 515 197 515Q226 515 235.0 506.0Q244 497 238 479L198 317Q226 366 255.5 404.0Q285 442 314.0 467.5Q343 493 369.5 506.0Q396 519 417 519Q444 519 465.5 506.0Q487 493 499 476Q506 466 504.0 454.5Q502 443 493 432Q482 420 471.5 415.5Q461 411 453 419Q442 427 430.5 433.0Q419 439 407 439Q381 439 345.5 411.0Q310 383 271.5 331.0Q233 279 195.5 208.5Q158 138 129 54L121 11Q118 -2 107.5 -8.5Q97 -15 74 -15Z" transform="translate(223.416, 72) scale(0.072, -0.072)" /><path d="M134 -15Q81 -15 64.5 25.5Q48 66 70 144L152 484Q158 503 167.5 509.0Q177 515 197 515Q226 515 235.0 506.0Q244 497 238 479L143 104Q138 82 140.5 71.5Q143 61 156 61Q165 61 173.0 67.0Q181 73 191.5 84.5Q202 96 216 115Q223 125 231.5 126.5Q240 128 251 121Q267 112 271.0 102.5Q275 93 269 83Q250 50 229.0 28.0Q208 6 184.5 -4.5Q161 -15 134 -15ZM244 669Q222 669 208.0 682.5Q194 696 194 722Q194 751 210.5 773.0Q227 795 262 795Q285 795 299.0 781.5Q313 768 313 741Q313 713 296.5 691.0Q280 669 244 669Z" transform="translate(256.104, 72) scale(0.072, -0.072)" /><path d="M170 -15Q131 -15 107.5 2.5Q84 20 78.0 55.0Q72 90 86 141L155 420H79Q67 420 62.5 430.0Q58 440 62 460Q66 481 75.5 490.5Q85 500 97 500H176L226 699Q231 718 241.0 724.0Q251 730 271 730Q300 730 309.0 721.0Q318 712 313 694L263 500H389Q401 500 406.0 490.5Q411 481 406 460Q402 440 393.0 430.0Q384 420 372 420H243L166 125Q158 91 163.5 76.0Q169 61 188 61Q208 61 233.0 78.0Q258 95 284 132Q292 142 301.5 143.5Q311 145 325 137Q340 128 343.0 118.5Q346 109 342 100Q330 76 306.0 49.0Q282 22 248.0 3.5Q214 -15 170 -15Z" transform="translate(277.704, 72) scale(0.072, -0.072)" /><path d="M232 -19Q171 -19 131.5 6.5Q92 32 72.0 77.0Q52 122 52 177Q52 237 72.5 297.5Q93 358 131.5 408.0Q170 458 226.0 488.5Q282 519 354 519Q401 519 433.0 504.0Q465 489 482.0 462.5Q499 436 499 398Q499 357 474.5 324.0Q450 291 409.0 265.0Q368 239 316.0 220.0Q264 201 209.0 188.0Q154 175 101 166L107 237Q140 242 181.0 251.0Q222 260 261.5 272.0Q301 284 334.5 301.0Q368 318 388.0 340.0Q408 362 408 390Q408 417 390.0 428.5Q372 440 343 440Q298 440 260.0 417.0Q222 394 196.0 356.5Q170 319 156.0 274.0Q142 229 142 185Q142 147 152.5 119.0Q163 91 186.0 76.0Q209 61 244 61Q278 61 304.5 74.5Q331 88 354.0 110.0Q377 132 400 158Q412 172 427.0 169.0Q442 166 453 155Q464 144 466.0 132.0Q468 120 457 106Q421 59 383.5 31.5Q346 4 308.5 -7.5Q271 -19 232 -19Z" transform="translate(305.64, 72) scale(0.072, -0.072)" /><path d="M106 -14Q84 -14 73.5 -7.0Q63 0 66 16L277 863Q281 877 293.5 883.5Q306 890 328 890Q350 890 360.5 883.0Q371 876 367 861L155 14Q152 0 140.5 -7.0Q129 -14 106 -14Z" transform="translate(365.112, 72) scale(0.072, -0.072)" /><path d="M310 -19Q266 -19 226.5 -8.5Q187 2 153.0 20.5Q119 39 91.0 64.0Q63 89 42 117Q34 129 38.0 139.5Q42 150 53 159Q68 171 78.5 174.0Q89 177 100 165Q122 140 153.0 117.5Q184 95 223.5 80.5Q263 66 310 66Q357 66 396.5 76.5Q436 87 465.0 107.0Q494 127 510.0 159.0Q526 191 526 234Q526 263 516.5 286.5Q507 310 488.5 330.5Q470 351 443.5 368.0Q417 385 381 403Q348 419 318.0 438.0Q288 457 262.5 479.0Q237 501 218.0 528.0Q199 555 188.5 588.5Q178 622 178 663Q178 713 197.5 755.0Q217 797 254.5 827.0Q292 857 344.0 873.5Q396 890 461 890Q513 890 554.5 876.0Q596 862 630.5 838.5Q665 815 693 788Q703 778 701.0 766.5Q699 755 686 744Q674 732 662.5 729.5Q651 727 640 735Q617 754 592.0 770.0Q567 786 536.0 795.5Q505 805 461 805Q419 805 383.5 796.0Q348 787 323.0 769.5Q298 752 284.5 725.5Q271 699 271 663Q271 631 279.0 606.0Q287 581 305.5 560.0Q324 539 353.0 520.0Q382 501 424 482Q467 461 502.5 436.5Q538 412 564.5 382.0Q591 352 604.5 315.5Q618 279 618 234Q618 176 595.5 129.5Q573 83 531.5 50.0Q490 17 433.5 -1.0Q377 -19 310 -19Z" transform="translate(389.44800000000004, 72) scale(0.072, -0.072)" /></g></svg>
